!!!COM: Angelo Berardi
!!!OPR: Documenti Armonici
!!!ONB: Canon at the fifth above after a semibreve, CF below
!!!PPR: Giacomo Monti
!!!PDT: 1687
!!!PPP: Bologna
!!!ONB: Reprint ed., Bologna: Forni., 1970.  Bk II p. 95c.
!!!ONB: Transcribed from Angelo Berardi, Documenti Armonici, 1687,
**kern	**kern	**kern
*CF	*guida	*conseq
*k[]	*k[]	*k[]
*M4/4	*M4/4	*M4/4
=1-	=1-	=1-
1D	2d	1r
.	[2f	.
=2	=2	=2
1F	4f]	2a
.	4g	.
.	4a	[2cc
.	4f	.
=3	=3	=3
1C	4e	4cc]
.	4f	4dd
.	[2g	4ee
.	.	4cc
=4	=4	=4
1G	4g]	4b
.	8f	4cc
.	8e	.
.	4d	[2dd
.	4e	.
=5	=5	=5
1D	1f	4dd]
.	.	8cc
.	.	8b
.	.	4a
.	.	4b
=6	=6	=6
1A	4.e	1cc
.	8c	.
.	4e	.
.	4f	.
=7	=7	=7
1G	4g	4.b
.	4d	.
.	.	8g
.	[2g	4b
.	.	4cc
=8	=8	=8
1D	4g]	4dd
.	8f	4a
.	8e	.
.	2f#	[2dd
=9	=9	=9
1E	1g	4dd]
.	.	8cc#
.	.	8b
.	.	2cc#
=10	=10	=10
[1D	[1f#	[1dd
=11	=11	=11
1D]	1f#]	1dd]
==	==	==
*-	*-	*-
!!!CDT: ~1636//-1694/4/9
!!!CNT: Italia
!!!ODT: <1687//
!!!YEP: David Huron and Denis Collins
!!!YEN: Canada
!!!AIN: vox; ?
!!!AST: polyphony
!!!RDT: 1995 July 3
!!!YED: 1995 August 31
!!!AFR: cantus firmus canon
!!!AMT: simple quadruple
!!!EEV: 1.0
